X:1
T:Title
%%score { 1 | 2 }
L:1/8
M:6/8
K:Eb
V:1 treble nm="Grand Piano"
V:2 bass 
V:1
 z3 z2[Q:1/4=84] E | GGG GFE | [GB][GB][Ac] [GB]2 [EG] | [GB][GB][GB] [Ac][GB][EG] | %4
 [DF]3- [DF]2 E | GGG GFE |[M:5/8] [GB][GB][Ac] [GB]2 |[M:1/8] [EG] |[M:3/4] [GB][GB] A G2 F | %9
[M:5/8] E-E- E3 |[M:1/8] [GB] |[M:3/4] [Ge][Ge] [Ge][Ae] [Ad][Ac] | [GB]3 [EG]2 [EG] | %13
 [GB][GB] [GB][Ac] [GB]G | F4- FB | [Ge][Ge] [Ge][Ae] [Ad][Ac] | [GB]3 G2 G | Bc z G2 [DF] | %18
[M:5/8] [B,E]-[B,E]- [B,E]3 |] %19
V:2
 z3 z2 [E,G,] | [E,B,E][E,B,E][E,B,E] [E,B,E][E,A,E][E,G,] | [E,E][E,E][E,E] [E,E]2 [E,B,] | %3
 [E,E][E,E][E,E] [A,E][E,E][E,B,] | [B,,B,]3- [B,,B,]2 [E,G,] | %5
 [E,B,E][E,B,E][E,B,E] [E,B,E][E,A,E][E,G,] |[M:5/8] [E,E][E,E][E,E] [E,E]2 |[M:1/8] [E,B,] | %8
[M:3/4] [E,E][E,E][K:treble] [A,CF] [B,E]2[K:bass] [B,,A,B,] | %9
[M:5/8] [E,G,B,]-[E,G,B,]- [E,G,B,]3 |[M:1/8] [E,E] |[M:3/4] [E,B,][E,B,] [E,B,][E,C] [E,D][E,E] | %12
 [E,E]3 [E,B,]2 [E,B,] | [E,E][E,E] [E,E][A,E] [E,E][K:treble][G,B,E] | [B,D]4- [B,D][B,DA] | %15
 [E,B,][E,B,] [E,B,][E,C] [E,D][E,E] | [E,E]3 [E,B,E]2 [E,B,E] | %17
 [B,EG][B,EG] z[K:bass] [B,E]2 [B,,A,] |[M:5/8] [E,G,]-[E,G,]- [E,G,]3 |] %19

